X:1
T:LE REVE BLEU
T:LE REVE BLEU
T:Arrgt 4 mains : S.Hermand
C:Arrgt 4 mains : S.Hermand
%%score { 1 | 2 } { 3 | 4 }
L:1/8
Q:1/4=160
M:4/4
K:D
V:1 treble nm="Piano" snm="Pno."
V:2 treble 
V:3 treble nm="Piano" snm="Pia."
V:4 bass 
V:1
!mp! z4 d'4- | d'8 | z4 e'2 f'2- | f'8 | z4 d'4- | d'8 | f8 | e8 | e8- | e8 | e4 d4 | c4 d4 | %12
 z4 g2 a2- | a8 | f8 | e2 z2 z2!mf! f2 ||[K:treble] g4 b4 | a8- | a8- | a6 f2 | g4 b4 | a4 e2 g2- | %22
 g4 f2 f2- | f8 | f2 g2 a4 | c'4 b4 | a6 d2 | c'4 d'4 | a6 d2 | f4 e4 | d4 e4 | g4 f4 | d4 c4 | %33
 d8- | d8- | d8- | d8 |] %37
V:2
 d2 a2 z4 | z8 | d2 a2 z4 | z8 | d2 a2 z4 | z8 | d8 | c8 | c8- | c8 | c8 | A8 | G2 d2 z4 | z8 | %14
 d8 | c2 z4 z2 ||[K:treble] z8 | z8 | z8 | z8 | z8 | z8 | z8 | z8 | z8 | z8 | z8 | z8 | z8 | z8 | %30
 z8 | z8 | z8 | z8 | z8 | z8 | z8 |] %37
V:3
!mf! F4 E2 G2- | G2 F2 D4 | A,8- | A,8 | F4 E2 G2- | G2 F2 D4 | F8 | E8 | E4 ^D2 F2- | F2 E2 C4 | %10
 E4 D4 | C4 D4 | B,4 C4 | E2 D6 | A,8 | G,8 ||[K:bass]!mp! G,8 | A,4 E,2 F,2- | F,8- | F,8 | z8 | %21
 [F,A,]8 | G,8 | [D,F,]8 | F,2 G,2 A,4 | C4 B,4 | A,8 | C4 D4 | A,8 | A,8 | F,8 | E,8 | G,8 | %33
 D,4 E,2 F,2- | F,8 | z4 E,2 D,2- | D,8 |] %37
V:4
 A,8- | A,8 | F,8- | F,8 | A,8- | A,8 | D,8 | C,8 | B,,4- B,,2 ^A,,2- | A,,8 | C,8 | A,,8 | G,,8- | %13
 G,,8 | D,8 | A,,8 ||[K:bass] A,,8 | D,,2 A,,2- A,,4- | A,,8 | D,,2 A,,2 D,4- | D,8 | A,,8 | %22
 ^A,,8 | B,,8 | D,,8 | G,,8 | F,,8 | G,,8 | F,,8 | B,,8 | E,,8 | =C,8 | A,,8 | D,,2 A,,2 z4 | z8 | %35
 D,,2 A,,2 z4 | z8 |] %37

